X:1
T:Title
%%score 1 2 3
L:1/8
M:6/2
K:C
V:1 treble nm="Part_1"
V:2 treble-8 nm="Part_2"
V:3 treble-8 nm="Part_3"
V:1
 D16 F4 G4 | A4 _B6 A2 A4 G6 F2 | A4 z4 A4 G4 F4 G2 A2 | _B4 A6 G2 G4 F6 E2 | G12 z4 z4 G4 | %5
 A16 _B4 G4 | G4 A4 F6 G2 A6 G2 | _B4 A8 G4 ^F6 E2 | G12 z4 z4 E4 | F8 D4 F4 E4 D2 C2 | %10
 B,8 C4 D4 G6 F2 | F4 E6 D2 D4 C6 B,2 | D12 z4 z4 C4 | D6 E2 F4 G4 A6 G2 | G4 F6 E2 G4 d6 c2 | %15
 A4 _B6 A2 A6 G4 F2 | A12 z4 z4 A4 | (A8 _B8) A6 G2 | G2 F2 E4 D8 F2 G2 A4 | %19
 _B4 A6 G2 G4 F4 G2 E2 | G24 |] %21
V:2
[K:F] d24 | (d8 c8) B8 | (A12 D12) | (G8 B8) A8 | G24 | (F12 G12) | (B12 c12) | (G12 (A12) | G24) | %9
 (d12 ^c12) | (d12 G12) | (G8 F8) E8 | D24 | (G12 B12) | (A12 G12) | (d8 c8) B8 | A24 | (D12 F12) | %18
 (G12 d12) | (c8 B8) A8 | G24 |] %21
V:3
 D12- D8 D4 | D8 A4 F4 G8 | D8 D4 A8 D4 | d8 _B4 G4 D8 | z4 d16 d4 | D8 D4 (d8 _B4-) | %6
 B4 F8 C8 c4 | d4 e8 d4 c6 B2 | d8 c4 B4 A4 G4 | (D12 A12) | G12 z4 z4 c4 | d4 c2 B4 A2 A4 G8 | %12
 z4 A16 A4 | (_B12 G8) G4 | D8 D4 d4 _B4 G4 | D8 A4 F4 G8 | D12- D8 c4 | (d12 c12) | B8 G4 D8 F4 | %19
 C8 G4 G4 D8 | d24 |] %21

